X: 1
T: Gan Ainm
M: 4/4
L: 1/8
R: hornpipe
K: Gmaj
|:(3 DEF | G>FG>D (3 EFG (3 AGF | G>Bd>e d2 c>B | c>ea>b a>fd>c | B>dg>ag2 (3 DEF |
G>FG>D (3 EFG (3 AGF | G>Bd>e d2 c>B | c>ea>g f>de>f | g2 G2 G2 :|
|:d>c | B>d (3 ^cde d2 (3BAG | (3 FGA (3 DEF G2 (3 BAG | (3 FGA (3 DEF G>AB>d | (3^cde (3 edc d2 (3 d=cB |
c>Bc>e (3 agf (3 edc | B>AB>d (3 gfe (3 dcB | A>^GA>c (3 fed (3 cBA |(3 GBd (3 gdB G2  :|
